X: 43399
T: Wyres Megan
R: waltz
M: 3/4
K: Gmajor
|:B>c|dBG dBG|c>d e>c d>B|A>B c>A B>G|A>FD AFD|
d>BG dBG|c>d e>c d>B|c>A B>G A>F|1 G2 G>A:|2 GD B,A, G,2||
b>gd bgd|a>fd afd|gec gec|aa/f/d afd|
bb/g/d bgd|aa/f/d afd|ge^c gfe|d>e d>c B>c|
dBG dBG|c>d e>c d>B|AA/B/ c>A B>G|A>FD AFD|
d>BG dBG|cc/d/ e>c d>B|c>A B>G A>F|G4||

